file/oceano-azul-foundation.svg

<?xml version="1.0" encoding="UTF-8" standalone="no"?>
<!DOCTYPE svg PUBLIC "-//W3C//DTD SVG 1.1//EN" "http://www.w3.org/Graphics/SVG/1.1/DTD/svg11.dtd">
<svg width="100%" height="100%" viewBox="0 0 560 400" version="1.1" xmlns="http://www.w3.org/2000/svg" xmlns:xlink="http://www.w3.org/1999/xlink" xml:space="preserve" xmlns:serif="http://www.serif.com/" style="fill-rule:evenodd;clip-rule:evenodd;stroke-linejoin:round;stroke-miterlimit:1.41421;">
    <g transform="matrix(1.67462,0,0,1.67462,-95.0313,-81.4196)">
        <path d="M283.665,119.225L283.665,161.795C283.665,161.795 266.745,149.105 249.645,149.105C232.545,149.105 212.745,162.785 194.925,162.785C177.105,162.785 164.235,150.635 164.235,150.635L164.235,107.255C164.235,107.255 181.245,120.845 199.065,120.845C215.805,120.845 236.595,107.255 253.785,107.255C271.065,107.165 283.665,119.225 283.665,119.225ZM283.665,216.785L283.665,173.585C283.665,173.585 266.745,186.275 249.645,186.275C232.545,186.275 212.745,172.595 194.925,172.595C177.105,172.595 164.235,184.745 164.235,184.745L164.235,228.845C164.235,228.845 181.245,215.255 199.065,215.255C215.805,215.255 236.595,228.845 253.785,228.845C271.065,228.845 283.665,216.785 283.665,216.785ZM261.615,167.105C261.615,164.315 259.365,162.065 256.575,162.065C253.785,162.065 251.535,164.315 251.535,167.105C251.535,169.895 253.785,172.055 256.575,172.055C259.365,172.145 261.615,169.895 261.615,167.105Z" style="fill:rgb(30,118,189);fill-rule:nonzero;"/>
    </g>
</svg>

<svg clip-rule="evenodd" fill-rule="evenodd" stroke-linejoin="round" stroke-miterlimit="1.41421" viewBox="0 0 560 400" xmlns="http://www.w3.org/2000/svg"><path d="m283.665 119.225v42.57s-16.92-12.69-34.02-12.69-36.9 13.68-54.72 13.68-30.69-12.15-30.69-12.15v-43.38s17.01 13.59 34.83 13.59c16.74 0 37.53-13.59 54.72-13.59 17.28-.09 29.88 11.97 29.88 11.97zm0 97.56v-43.2s-16.92 12.69-34.02 12.69-36.9-13.68-54.72-13.68-30.69 12.15-30.69 12.15v44.1s17.01-13.59 34.83-13.59c16.74 0 37.53 13.59 54.72 13.59 17.28 0 29.88-12.06 29.88-12.06zm-22.05-49.68c0-2.79-2.25-5.04-5.04-5.04s-5.04 2.25-5.04 5.04 2.25 4.95 5.04 4.95c2.79.09 5.04-2.16 5.04-4.95z" fill="#1e76bd" fill-rule="nonzero" transform="matrix(1.67462 0 0 1.67462 -95.0313 -81.4196)"/></svg>
